_includes/icons/color-css-filetype.svg

<svg fill="#666" height="50" viewBox="0 0 48 48" width="50" xmlns="http://www.w3.org/2000/svg"><path d="m40 45h-32v-42h22l10 10z" fill="#4db6ac"/><path d="m38.5 14h-9.5v-9.5z" fill="#e0f2f1"/><g fill="#00695c"><path d="m19.933594 29.683594c-.050781 1.136719-.371094 1.996094-.957031 2.578125-.589844.582031-1.417969.875-2.488282.875-1.125 0-1.988281-.371094-2.589843-1.109375-.597657-.742188-.898438-1.796875-.898438-3.171875v-1.671875c0-1.367188.308594-2.421875.929688-3.164063.621093-.738281 1.480468-1.109375 2.585937-1.109375 1.082031 0 1.90625.304688 2.46875.910157.5625.605468.882813 1.476562.960938 2.609375h-2.015625c-.019532-.703125-.128907-1.1875-.328125-1.453125-.195313-.265625-.5625-.398438-1.089844-.398438-.535156 0-.917969.1875-1.140625.5625-.222656.378906-.34375.996094-.355469 1.855469v1.882812c0 .988282.109375 1.667969.332031 2.035157.222657.367187.601563.554687 1.136719.554687.53125 0 .894531-.128906 1.09375-.386719.203125-.257812.316406-.722656.34375-1.398437z"/><path d="m25.371094 30.390625c0-.40625-.101563-.714844-.308594-.921875s-.585937-.421875-1.132812-.644531c-.996094-.378906-1.714844-.820313-2.152344-1.332031-.4375-.507813-.65625-1.105469-.65625-1.800782 0-.835937.296875-1.511718.890625-2.019531.597656-.507812 1.351562-.761719 2.265625-.761719.613281 0 1.15625.128907 1.636719.386719.476562.257813.847656.621094 1.101562 1.089844.257813.46875.386719 1.003906.386719 1.601562h-2.003906c0-.464843-.097657-.820312-.296875-1.0625-.199219-.246093-.484375-.367187-.855469-.367187-.351563 0-.625.105469-.820313.3125-.195312.207031-.292968.484375-.292968.835937 0 .273438.105468.523438.328125.742188.21875.222656.605468.449219 1.160156.6875.972656.351562 1.675781.78125 2.113281 1.292969.441406.511718.660156 1.160156.660156 1.949218 0 .863282-.273437 1.542969-.824218 2.027344-.554688.488281-1.304688.730469-2.25.730469-.644532 0-1.226563-.128906-1.757813-.394531-.527344-.265625-.941406-.644532-1.242187-1.136719-.296875-.492188-.445313-1.070313-.445313-1.742188h2.015625c0 .574219.113281.992188.335938 1.25.222656.261719.585937.390625 1.09375.390625.699218 0 1.050781-.371093 1.050781-1.113281z"/><path d="m32.933594 30.390625c0-.40625-.105469-.714844-.3125-.921875s-.582031-.421875-1.128906-.644531c-1-.378906-1.71875-.820313-2.152344-1.332031-.441406-.507813-.65625-1.105469-.65625-1.800782 0-.835937.296875-1.511718.890625-2.019531.59375-.507812 1.351562-.761719 2.265625-.761719.613281 0 1.15625.128907 1.636719.386719.476562.257813.84375.621094 1.101562 1.089844.257813.46875.386719 1.003906.386719 1.601562h-2.003906c0-.464843-.097657-.820312-.296875-1.0625-.199219-.246093-.484375-.367187-.855469-.367187-.351563 0-.625.105469-.820313.3125-.199218.207031-.296875.484375-.296875.835937 0 .273438.109375.523438.328125.742188.21875.222656.605469.449219 1.164063.6875.96875.351562 1.675781.78125 2.113281 1.292969.441406.511718.660156 1.160156.660156 1.949218 0 .863282-.273437 1.542969-.824218 2.027344-.554688.488281-1.304688.730469-2.25.730469-.644532 0-1.230469-.128906-1.757813-.394531s-.941406-.644532-1.242187-1.136719c-.296875-.492188-.445313-1.070313-.445313-1.742188h2.015625c0 .574219.113281.992188.335938 1.25.222656.261719.589843.390625 1.09375.390625.699218 0 1.050781-.371093 1.050781-1.113281z"/></g></svg>

<svg xmlns="http://www.w3.org/2000/svg" viewBox="0 0 48 48" width="50" height="50" fill="#666"><path d="M 40 45 L 8 45 L 8 3 L 30 3 L 40 13 Z" fill="#4db6ac"/><path d="M 38.5 14 L 29 14 L 29 4.5 Z" fill="#e0f2f1"/><path d="M 19.933594 29.683594 C 19.882813 30.820313 19.5625 31.679688 18.976563 32.261719 C 18.386719 32.84375 17.558594 33.136719 16.488281 33.136719 C 15.363281 33.136719 14.5 32.765625 13.898438 32.027344 C 13.300781 31.285156 13 30.230469 13 28.855469 L 13 27.183594 C 13 25.816406 13.308594 24.761719 13.929688 24.019531 C 14.550781 23.28125 15.410156 22.910156 16.515625 22.910156 C 17.597656 22.910156 18.421875 23.214844 18.984375 23.820313 C 19.546875 24.425781 19.867188 25.296875 19.945313 26.429688 L 17.929688 26.429688 C 17.910156 25.726563 17.800781 25.242188 17.601563 24.976563 C 17.40625 24.710938 17.039063 24.578125 16.511719 24.578125 C 15.976563 24.578125 15.59375 24.765625 15.371094 25.140625 C 15.148438 25.519531 15.027344 26.136719 15.015625 26.996094 L 15.015625 28.878906 C 15.015625 29.867188 15.125 30.546875 15.347656 30.914063 C 15.570313 31.28125 15.949219 31.46875 16.484375 31.46875 C 17.015625 31.46875 17.378906 31.339844 17.578125 31.082031 C 17.78125 30.824219 17.894531 30.359375 17.921875 29.683594 Z" fill="#00695c"/><path d="M 25.371094 30.390625 C 25.371094 29.984375 25.269531 29.675781 25.0625 29.46875 C 24.855469 29.261719 24.476563 29.046875 23.929688 28.824219 C 22.933594 28.445313 22.214844 28.003906 21.777344 27.492188 C 21.339844 26.984375 21.121094 26.386719 21.121094 25.691406 C 21.121094 24.855469 21.417969 24.179688 22.011719 23.671875 C 22.609375 23.164063 23.363281 22.910156 24.277344 22.910156 C 24.890625 22.910156 25.433594 23.039063 25.914063 23.296875 C 26.390625 23.554688 26.761719 23.917969 27.015625 24.386719 C 27.273438 24.855469 27.402344 25.390625 27.402344 25.988281 L 25.398438 25.988281 C 25.398438 25.523438 25.300781 25.167969 25.101563 24.925781 C 24.902344 24.679688 24.617188 24.558594 24.246094 24.558594 C 23.894531 24.558594 23.621094 24.664063 23.425781 24.871094 C 23.230469 25.078125 23.132813 25.355469 23.132813 25.707031 C 23.132813 25.980469 23.238281 26.230469 23.460938 26.449219 C 23.679688 26.671875 24.066406 26.898438 24.621094 27.136719 C 25.59375 27.488281 26.296875 27.917969 26.734375 28.429688 C 27.175781 28.941406 27.394531 29.589844 27.394531 30.378906 C 27.394531 31.242188 27.121094 31.921875 26.570313 32.40625 C 26.015625 32.894531 25.265625 33.136719 24.320313 33.136719 C 23.675781 33.136719 23.09375 33.007813 22.5625 32.742188 C 22.035156 32.476563 21.621094 32.097656 21.320313 31.605469 C 21.023438 31.113281 20.875 30.535156 20.875 29.863281 L 22.890625 29.863281 C 22.890625 30.4375 23.003906 30.855469 23.226563 31.113281 C 23.449219 31.375 23.8125 31.503906 24.320313 31.503906 C 25.019531 31.503906 25.371094 31.132813 25.371094 30.390625 Z" fill="#00695c"/><path d="M 32.933594 30.390625 C 32.933594 29.984375 32.828125 29.675781 32.621094 29.46875 C 32.414063 29.261719 32.039063 29.046875 31.492188 28.824219 C 30.492188 28.445313 29.773438 28.003906 29.339844 27.492188 C 28.898438 26.984375 28.683594 26.386719 28.683594 25.691406 C 28.683594 24.855469 28.980469 24.179688 29.574219 23.671875 C 30.167969 23.164063 30.925781 22.910156 31.839844 22.910156 C 32.453125 22.910156 32.996094 23.039063 33.476563 23.296875 C 33.953125 23.554688 34.320313 23.917969 34.578125 24.386719 C 34.835938 24.855469 34.964844 25.390625 34.964844 25.988281 L 32.960938 25.988281 C 32.960938 25.523438 32.863281 25.167969 32.664063 24.925781 C 32.464844 24.679688 32.179688 24.558594 31.808594 24.558594 C 31.457031 24.558594 31.183594 24.664063 30.988281 24.871094 C 30.789063 25.078125 30.691406 25.355469 30.691406 25.707031 C 30.691406 25.980469 30.800781 26.230469 31.019531 26.449219 C 31.238281 26.671875 31.625 26.898438 32.183594 27.136719 C 33.152344 27.488281 33.859375 27.917969 34.296875 28.429688 C 34.738281 28.941406 34.957031 29.589844 34.957031 30.378906 C 34.957031 31.242188 34.683594 31.921875 34.132813 32.40625 C 33.578125 32.894531 32.828125 33.136719 31.882813 33.136719 C 31.238281 33.136719 30.652344 33.007813 30.125 32.742188 C 29.597656 32.476563 29.183594 32.097656 28.882813 31.605469 C 28.585938 31.113281 28.4375 30.535156 28.4375 29.863281 L 30.453125 29.863281 C 30.453125 30.4375 30.566406 30.855469 30.789063 31.113281 C 31.011719 31.375 31.378906 31.503906 31.882813 31.503906 C 32.582031 31.503906 32.933594 31.132813 32.933594 30.390625 Z" fill="#00695c"/></svg>
